src/assets/icons/svg/corner-left.svg

<svg width="14" height="26" viewBox="0 0 14 26" fill="none" xmlns="http://www.w3.org/2000/svg">
<path d="M3.60097 13.582L3.60118 13.5822L12.8694 22.9965C13.3778 23.5129 13.3767 24.3478 12.8671 24.8629C12.6123 25.1206 12.2773 25.25 11.9426 25.25C11.6068 25.25 11.271 25.1198 11.0159 24.8607L11.0158 24.8607L1.74885 15.4475C0.416917 14.0979 0.41694 11.9024 1.74958 10.5518L3.60097 13.582ZM3.60097 13.582C3.28497 13.2618 3.28471 12.7385 3.60192 12.4171L3.60213 12.4169L12.8694 3.00342L12.8694 3.00342C13.3777 2.48705 13.3767 1.65216 12.8671 1.13702L12.8671 1.137C12.3556 0.620124 11.526 0.621104 11.0158 1.13933L11.1938 1.31449L11.0158 1.13933L1.7498 10.5516L3.60097 13.582Z" fill="black" stroke="black" stroke-width="0.5"/>
</svg>

<?xml version="1.0" encoding="iso-8859-1"?>
<!-- Generator: Adobe Illustrator 23.1.0, SVG Export Plug-In . SVG Version: 6.00 Build 0)  -->
<svg version="1.1" id="&#x421;&#x43B;&#x43E;&#x439;_1"
	 xmlns="http://www.w3.org/2000/svg" xmlns:xlink="http://www.w3.org/1999/xlink" x="0px" y="0px" viewBox="0 0 14 26"
	 style="enable-background:new 0 0 14 26;" xml:space="preserve">
<path style="stroke:#000000;stroke-width:0.5;" d="M3.601,13.582L3.601,13.582l9.268,9.415c0.508,0.516,0.507,1.351-0.002,1.866
	c-0.255,0.258-0.59,0.387-0.924,0.387c-0.336,0-0.672-0.13-0.927-0.389h0l-9.267-9.413c-1.332-1.35-1.332-3.545,0.001-4.896
	L3.601,13.582z M3.601,13.582c-0.316-0.32-0.316-0.844,0.001-1.165l0,0l9.267-9.413l0,0c0.508-0.516,0.507-1.351-0.002-1.866v0
	c-0.511-0.517-1.341-0.516-1.851,0.002l0.178,0.175l-0.178-0.175L1.75,10.552L3.601,13.582z"/>
</svg>
